data/playwrite-de-sas.svg

<svg width="137.03" height="23.506" viewBox="0 0 137.03 23.506" xmlns="http://www.w3.org/2000/svg"><path transform="translate(0 18.074) scale(.014 -.014)" d="m109-14q-47 0-40 30l212 845q4 14 16 20.5t34 6.5h165q95 0 158.5-22.5t95.5-67.5 32-114q0-77-29.5-133.5t-82.5-94.5-123.5-61.5-152.5-34.5q-38-4-78.5-6.5t-74.5-2.5l-84-337q-4-14-15-21t-33-7zm152 445q23 0 49 1t53 3.5 52 5.5q85 14 147 43t96 76 34 116q0 47-22 76t-67.5 42.5-117.5 13.5h-129z"/><path transform="translate(9.912 18.074) scale(.014 -.014)" d="m-154-17q-19 0-25 11.5t-3 26 14 26 28 11.5q26 0 60 15t73.5 43 82 65.5 85.5 83 83 95.5 74 103 59.5 106 40 103.5 14.5 95.5q0 14 13 21t30 7 29.5-7 12.5-21q0-46-16-99t-45.5-110.5-69-116-85.5-115-95.5-107.5-99.5-94.5-97-75.5-89-49.5-74-17.5zm322 1q-35 0-53.5 14.5t-24 37-2.5 50 9 53.5l139 559q27 110 68.5 159.5t104.5 49.5q33 0 57-17.5t37.5-48.5 13.5-73q0-19-12.5-28t-29.5-9-30 9-13 28q0 18-3 31t-10.5 20-20.5 7q-14 0-27-12.5t-25.5-43.5-26.5-89l-146-575q-3-16-3.5-26t3.5-15 12-5q11 0 21 6.5t20.5 18 21.5 26.5q7 9 16 11t21-6q16-10 18.5-19.5t-1.5-19.5q-10-19-29-40.5t-45-37-60-15.5z"/><path transform="translate(15.428 18.074) scale(.014 -.014)" d="m175-17q-40 0-70 20.5t-46 59.5-16 92q0 47 12.5 98t38 98 62.5 85 85 60.5 108 22.5q31 0 62.5-8.5t61.5-23.5v4q5 15 15 19.5t28 4.5q30 0 38.5-9t3.5-27l-95-373q-5-16-5-26t4.5-15 12.5-5q11 0 21 6.5t20.5 18 21.5 26.5q7 9 16 11t21-6q15-9 18.5-19.5t-2.5-20.5q-9-18-27.5-39.5t-44.5-37-60-15.5q-32 0-50 12.5t-25 32.5-6 43.5 5 46.5q1 5 1.5 10t0.5 11q-35-54-71-89t-71-51.5-68-16.5zm-42 184q0-32 7.5-55.5t23-36 36.5-12.5q35 0 74.5 32t80.5 93.5 80 148.5l20 79q-31 14-58.5 19t-51.5 5q-41 0-75-17t-59.5-46-42.5-65-26-73.5-9-71.5z"/><path transform="translate(24.136 18.074) scale(.014 -.014)" d="m427 25q20 13 39 24t36 21 32.5 18 28.5 14q16 8 25.5 1.5t12.5-20-1-27-16-19.5q-19-10-39-22t-41-24.5-42.5-26-43.5-26.5zm-242-432q-37 0-65 14t-44 38.5-16 56.5q0 31 13 59.5t38.5 55.5 62 54.5 84.5 56.5q28 17 56.5 34t56.5 35l41 162q-26-43-54.5-75.5t-58.5-55-60-33.5-61-11q-47 0-75.5 21.5t-36 64.5 8.5 105l78 309q5 19 15 25t29 6q29 0 38-9t4-27l-81-316q-8-30-7-52.5t13.5-35 41.5-12.5q32 0 67.5 24.5t70.5 68 68 103.5 60 131l20 94q6 19 15.5 25t29.5 6q29 0 38-9t4-27l-156-621q-18-70-41-120t-51.5-82.5-65-47.5-80.5-15zm12 78q23 0 43 11t37.5 34 32.5 59 28 86l8 37q-17-10-33.5-20.5t-33.5-20.5q-33-20-58-39t-40.5-36.5-23.5-34-8-32.5q0-13 5.5-23t16.5-15.5 26-5.5z"/><path transform="translate(33.096 18.074) scale(.014 -.014)" d="m185-19q-42 0-68 17t-37.5 46.5-10.5 67 11 78.5l72 295q4 15 13.5 23t32.5 8q30 0 38-9t3-27l-74-297q-8-32-10-60t9-45 42-17q26 0 52 17t50 46.5 44.5 66.5 34.5 77l56 217q4 15 13 23t31 8q31 0 38.5-9t2.5-27l-64-272q-5-23-9-49t-2-48.5 15-36 41-13.5q32 0 61.5 19t54.5 51.5 44 72.5 29.5 82.5 10.5 81.5q0 16-1 31.5t-4.5 32-8.5 31.5q-6 18-2 30.5t14.5 19 26.5 6.5q18 0 29-11t17-35q5-14 9-29.5t5.5-31.5 1.5-33q0-50-14-104.5t-40.5-107-64-94.5-84.5-67-102-25q-43 0-70.5 16t-41 44-16.5 63q-22-38-49.5-65.5t-59.5-42.5-69-15z"/><path transform="translate(45.066 18.074) scale(.014 -.014)" d="m99-15q-17 0-30 7t-8 24l99 392q3 16-1.5 25.5t-16.5 9.5q-11 0-23-7t-26-22-33-41q-10-14-20-17t-26 4q-19 10-19.5 21.5t6.5 24.5q20 32 42 57t50 40 65 15q32 0 50.5-11t26-29.5 7.5-40.5-3-43l-12-52q24 44 48.5 77t49.5 55.5 47 33.5 41 11q15 0 23-7t7-31q0-25 3-42t10.5-25 19.5-8q23 0 48.5 13.5t70.5 45.5q11 7 21.5 2.5t17.5-15.5 7.5-23.5-9.5-19.5q-43-35-82-53.5t-80-18.5q-22 0-42.5 9t-34 29.5-15.5 55.5q-22-13-48.5-41t-55-69.5-55-94.5-49.5-115l-24-100q-3-13-13.5-19.5t-33.5-6.5z"/><path transform="translate(52.78 18.074) scale(.014 -.014)" d="m141-16q-57 0-75 41t3 117l83 342q5 19 15 25t29 6q29 0 38.5-9t3.5-27l-93-372q-6-24-2.5-35.5t17.5-11.5q10 0 19 6t19 17.5 22 27.5q7 9 16 11t21-6q15-9 18.5-19t-2.5-20q-17-29-37.5-50t-44-32-50.5-11zm103 685q-22 0-36 13.5t-14 39.5q0 29 17 51t52 22q22 0 36-13.5t14-40.5q0-28-16.5-50t-52.5-22z"/><path transform="translate(56.98 18.074) scale(.014 -.014)" d="m-113-17q-14 0-20.5 11.5t-4.5 26 12.5 26 27.5 11.5q24 0 60 29t79.5 80 91 115.5 94 135.5 89 141.5 77 132.5 57.5 109 29 70q6 20 15.5 26t29.5 6q29 0 38-9t4-27l-190-758q42 13 86.5 39.5t97 70 113.5 105.5q5 5 14.5 7.5t20.5-7.5q13-11 13-20t-7-15q-55-56-111.5-107.5t-117-88.5-126.5-50l-8-32q-3-13-13-19.5t-33-6.5q-17 0-30 7t-9 24l5 22q-28 3-51 13t-37 28-14 43q0 28 20 48.5t54 20.5q18 0 33.5-6t26.5-17l109 434q-36-67-78-139t-87.5-141.5-93-130.5-94-108-90-73.5-82.5-26.5zm352 138q0-5 5-9.5t15.5-7.5 25.5-4q0 16-10.5 24.5t-21.5 8.5q-14 0-14-12z"/><path transform="translate(65.8 18.074) scale(.014 -.014)" d="m249-18q-40 0-71.5 13.5t-56 37-41 55-24.5 67-8 72.5 8 77.5 25.5 78.5 44 69 62.5 49 83 18q36 0 62.5-14.5t41-40 14.5-59.5q0-46-25-94t-66.5-94-92.5-85q-54-43-115-77t-119.5-53-107.5-19q-14 0-21 11.5t-5 26 13 26 32 11.5q37 0 84.5 17t98 46.5 94.5 65.5q39 31 70.5 65t50.5 68.5 19 65.5q0 27-11.5 40t-34.5 13q-27 0-48.5-20t-37-51-23.5-68-8-70 8.5-63.5 25.5-54 41-37 54-13.5 56.5 12 51 32.5 46.5 43.5q13 14 27.5 11.5t25.5-13.5q12-12 14-24t-10-26q-34-43-72-68.5t-77-36.5-78-11z"/><path transform="translate(76.216 18.074) scale(.014 -.014)" d="m108 0q-45 0-37 28l211 833q4 14 16.5 20.5t34.5 6.5h161q95 0 165-24.5t116.5-67.5 68.5-98 22-117q0-103-28.5-192t-81.5-160-125.5-122.5-161-79-186.5-27.5zm65 85h110q78 0 150 21.5t133.5 63.5 106.5 102.5 70 138 25 170.5q0 51-19 92t-55 70-87 44.5-114 15.5h-138z"/><path transform="translate(88.536 18.074) scale(.014 -.014)" d="m321-19q-79 0-136 26t-88 74.5-31 113.5q0 48 18 93t51 82 78 63.5 98 36.5q-39 13-65.5 37.5t-40 57-13.5 68.5q0 48 14.5 89.5t41 74.5 63 57 82 36.5 96.5 12.5q54 0 101.5-14t85-39 60.5-58q13-17 11-30.5t-16-23.5q-14-12-28.5-11t-29.5 16q-23 23-53 39.5t-67 25-80 8.5-78-13.5-60-37.5-38.5-57.5-13.5-72.5q0-38 18.5-67t54-45.5 85.5-16.5h119q17 0 20.5-8.5t-1.5-31.5q-5-22-13.5-31t-23.5-9h-121q-54 0-101.5-17.5t-83.5-48.5-56-71-20-85 21.5-75 61.5-45 96-15q48 0 91.5 16t82.5 46.5 73 73.5q14 20 28 21t30-12q15-12 14.5-25.5t-14.5-31.5q-43-59-92.5-97.5t-107-58.5-123.5-20z"/><path transform="translate(102.62 18.074) scale(.014 -.014)" d="m313-19q-45 0-85 10t-74 28-61.5 42-48.5 52q-9 11-4.5 21.5t15.5 20.5q14 12 24.5 15t21.5-9q23-25 54-46.5t70.5-35 87.5-13.5q49 0 89 10.5t69.5 31.5 46 54.5 16.5 77.5q0 29-10 53t-28.5 44-45.5 37.5-63 35.5q-33 16-63.5 35t-56.5 41-45 49.5-30 61.5-11 77q0 50 20 92t58 73 90.5 47.5 118.5 16.5q52 0 95-14.5t78.5-38 63.5-51.5q11-10 8.5-21t-15.5-23q-11-11-23-13.5t-22 4.5q-24 20-50 36t-58.5 26-77.5 10q-42 0-78-9t-61.5-27-39.5-45-14-63q0-33 8.5-59t27-47 48.5-40.5 72-38.5q44-21 80-46t62.5-55 40-66.5 13.5-81.5q0-59-23-106.5t-65-82-99-52.5-126-18z"/><path transform="translate(112.36 18.074) scale(.014 -.014)" d="m137-17q-29 0-54 9.5t-43.5 22-28.5 21.5q-11 11-10 24t13 27q12 15 23 16.5t22-7.5q20-16 39.5-24t40.5-8q20 0 40 7.5t44 27.5 52.5 57.5 65.5 96 83.5 144 105 201.5 131.5 268q9 21 24.5 29t37.5 8q30 0 45-9.5t14-33.5q-4-63-6.5-128t-3.5-131 0-131.5 3.5-129.5 7.5-125q3-43 8.5-72.5t14-47 20-25 25.5-7.5q21 0 43 19.5t45 59 47 100.5q6 14 17.5 18.5t28.5-2.5q19-6 26-17t2-24q-29-78-62.5-130t-71.5-78-83-26q-33 0-58 13t-42.5 40.5-28.5 70.5-16 102q-1 16-2 31t-1 30h-250q-45-74-81.5-125t-67.5-83-58-49-51.5-23.5-49.5-6.5zm353 365h201q-2 66-2.5 134t0.5 137 3 137q-59-127-109-228.5t-93-179.5z"/><path transform="translate(127.29 18.074) scale(.014 -.014)" d="m313-19q-45 0-85 10t-74 28-61.5 42-48.5 52q-9 11-4.5 21.5t15.5 20.5q14 12 24.5 15t21.5-9q23-25 54-46.5t70.5-35 87.5-13.5q49 0 89 10.5t69.5 31.5 46 54.5 16.5 77.5q0 29-10 53t-28.5 44-45.5 37.5-63 35.5q-33 16-63.5 35t-56.5 41-45 49.5-30 61.5-11 77q0 50 20 92t58 73 90.5 47.5 118.5 16.5q52 0 95-14.5t78.5-38 63.5-51.5q11-10 8.5-21t-15.5-23q-11-11-23-13.5t-22 4.5q-24 20-50 36t-58.5 26-77.5 10q-42 0-78-9t-61.5-27-39.5-45-14-63q0-33 8.5-59t27-47 48.5-40.5 72-38.5q44-21 80-46t62.5-55 40-66.5 13.5-81.5q0-59-23-106.5t-65-82-99-52.5-126-18z"/></svg>

<?xml version="1.0" encoding="utf-8" ?>
<svg baseProfile="tiny" height="100%" version="1.2" width="100%" xmlns="http://www.w3.org/2000/svg" xmlns:ev="http://www.w3.org/2001/xml-events" xmlns:xlink="http://www.w3.org/1999/xlink"><defs /><g><path d="M109 -14Q62 -14 69 16L281 861Q285 875 297.0 881.5Q309 888 331 888H496Q591 888 654.5 865.5Q718 843 750.0 798.0Q782 753 782 684Q782 607 752.5 550.5Q723 494 670.0 456.0Q617 418 546.5 394.5Q476 371 394 360Q356 356 315.5 353.5Q275 351 241 351L157 14Q153 0 142.0 -7.0Q131 -14 109 -14ZM261 431Q284 431 310.0 432.0Q336 433 363.0 435.5Q390 438 415 441Q500 455 562.0 484.0Q624 513 658.0 560.0Q692 607 692 676Q692 723 670.0 752.0Q648 781 602.5 794.5Q557 808 485 808H356Z" transform="translate(0.0, 72) scale(0.072, -0.072)" /><path d="M-154 -17Q-173 -17 -179.0 -5.5Q-185 6 -182.0 20.5Q-179 35 -168.0 46.5Q-157 58 -140 58Q-114 58 -80.0 73.0Q-46 88 -6.5 116.0Q33 144 75.5 181.5Q118 219 161.0 264.5Q204 310 244.0 360.0Q284 410 318.0 463.0Q352 516 377.5 569.0Q403 622 417.5 672.5Q432 723 432 768Q432 782 445.0 789.0Q458 796 475.0 796.0Q492 796 504.5 789.0Q517 782 517 768Q517 722 501.0 669.0Q485 616 455.5 558.5Q426 501 386.5 442.5Q347 384 301.0 327.5Q255 271 205.5 220.0Q156 169 106.0 125.5Q56 82 9.0 50.0Q-38 18 -80.0 0.5Q-122 -17 -154 -17ZM168 -16Q133 -16 114.5 -1.5Q96 13 90.5 35.5Q85 58 88.0 85.5Q91 113 97 139L236 698Q263 808 304.5 857.5Q346 907 409 907Q442 907 466.0 889.5Q490 872 503.5 841.0Q517 810 517 768Q517 749 504.5 740.0Q492 731 475.0 731.0Q458 731 445.0 740.0Q432 749 432 768Q432 786 429.0 799.0Q426 812 418.5 819.0Q411 826 398 826Q384 826 371.0 813.5Q358 801 345.5 770.0Q333 739 319 681L173 106Q170 90 169.5 80.0Q169 70 173.0 65.0Q177 60 185 60Q196 60 206.0 66.5Q216 73 226.5 84.5Q237 96 248 111Q255 120 264.0 122.0Q273 124 285 116Q301 106 303.5 96.5Q306 87 302 77Q292 58 273.0 36.5Q254 15 228.0 -0.5Q202 -16 168 -16Z" transform="translate(50.976, 72) scale(0.072, -0.072)" /><path d="M175 -17Q135 -17 105.0 3.5Q75 24 59.0 63.0Q43 102 43 155Q43 202 55.5 253.0Q68 304 93.5 351.0Q119 398 156.0 436.0Q193 474 241.0 496.5Q289 519 349 519Q380 519 411.5 510.5Q443 502 473 487V491Q478 506 488.0 510.5Q498 515 516 515Q546 515 554.5 506.0Q563 497 558 479L463 106Q458 90 458.0 80.0Q458 70 462.5 65.0Q467 60 475 60Q486 60 496.0 66.5Q506 73 516.5 84.5Q527 96 538 111Q545 120 554.0 122.0Q563 124 575 116Q590 107 593.5 96.5Q597 86 591 76Q582 58 563.5 36.5Q545 15 519.0 -0.5Q493 -16 459 -16Q427 -16 409.0 -3.5Q391 9 384.0 29.0Q377 49 378.0 72.5Q379 96 383 119Q384 124 384.5 129.0Q385 134 385 140Q350 86 314.0 51.0Q278 16 243.0 -0.5Q208 -17 175 -17ZM133 167Q133 135 140.5 111.5Q148 88 163.5 75.5Q179 63 200 63Q235 63 274.5 95.0Q314 127 355.0 188.5Q396 250 435 337L455 416Q424 430 396.5 435.0Q369 440 345 440Q304 440 270.0 423.0Q236 406 210.5 377.0Q185 348 168.0 312.0Q151 276 142.0 238.5Q133 201 133 167Z" transform="translate(79.344, 72) scale(0.072, -0.072)" /><path d="M427 25Q447 38 466.0 49.0Q485 60 502.0 70.0Q519 80 534.5 88.0Q550 96 563 102Q579 110 588.5 103.5Q598 97 601.0 83.5Q604 70 600.0 56.5Q596 43 584 37Q565 27 545.0 15.0Q525 3 504.0 -9.5Q483 -22 461.5 -35.5Q440 -49 418 -62ZM185 -407Q148 -407 120.0 -393.0Q92 -379 76.0 -354.5Q60 -330 60 -298Q60 -267 73.0 -238.5Q86 -210 111.5 -183.0Q137 -156 173.5 -128.5Q210 -101 258 -72Q286 -55 314.5 -38.0Q343 -21 371 -3L412 159Q386 116 357.5 83.5Q329 51 299.0 28.5Q269 6 239.0 -5.0Q209 -16 178 -16Q131 -16 102.5 5.5Q74 27 66.5 70.0Q59 113 75 175L153 484Q158 503 168.0 509.0Q178 515 197 515Q226 515 235.0 506.0Q244 497 239 479L158 163Q150 133 151.0 110.5Q152 88 164.5 75.5Q177 63 206 63Q238 63 273.5 87.5Q309 112 344.0 155.5Q379 199 412.0 259.0Q445 319 472 390L492 484Q498 503 507.5 509.0Q517 515 537 515Q566 515 575.0 506.0Q584 497 579 479L423 -142Q405 -212 382.0 -262.0Q359 -312 330.5 -344.5Q302 -377 265.5 -392.0Q229 -407 185 -407ZM197 -329Q220 -329 240.0 -318.0Q260 -307 277.5 -284.0Q295 -261 310.0 -225.0Q325 -189 338 -139L346 -102Q329 -112 312.5 -122.5Q296 -133 279 -143Q246 -163 221.0 -182.0Q196 -201 180.5 -218.5Q165 -236 157.0 -252.5Q149 -269 149 -285Q149 -298 154.5 -308.0Q160 -318 171.0 -323.5Q182 -329 197 -329Z" transform="translate(124.12799999999999, 72) scale(0.072, -0.072)" /><path d="M185 -19Q143 -19 117.0 -2.0Q91 15 79.5 44.5Q68 74 69.0 111.5Q70 149 80 190L152 485Q156 500 165.5 508.0Q175 516 198 516Q228 516 236.0 507.0Q244 498 239 480L165 183Q157 151 155.0 123.0Q153 95 164.0 78.0Q175 61 206 61Q232 61 258.0 78.0Q284 95 308.0 124.5Q332 154 352.5 191.0Q373 228 387 268L443 485Q447 500 456.0 508.0Q465 516 487 516Q518 516 525.5 507.0Q533 498 528 480L464 208Q459 185 455.0 159.0Q451 133 453.0 110.5Q455 88 468.0 74.5Q481 61 509 61Q541 61 570.5 80.0Q600 99 625.0 131.5Q650 164 669.0 204.0Q688 244 698.5 286.5Q709 329 709 368Q709 384 708.0 399.5Q707 415 703.5 431.5Q700 448 695 463Q689 481 693.0 493.5Q697 506 707.5 512.5Q718 519 734 519Q752 519 763.0 508.0Q774 497 780 473Q785 459 789.0 443.5Q793 428 794.5 412.0Q796 396 796 379Q796 329 782.0 274.5Q768 220 741.5 167.5Q715 115 677.5 73.0Q640 31 593.0 6.0Q546 -19 491 -19Q448 -19 420.5 -3.0Q393 13 379.5 41.0Q366 69 363 104Q341 66 313.5 38.5Q286 11 254.0 -4.0Q222 -19 185 -19Z" transform="translate(170.20799999999997, 72) scale(0.072, -0.072)" /><path d="M99 -15Q82 -15 69.0 -8.0Q56 -1 61 16L160 408Q163 424 158.5 433.5Q154 443 142 443Q131 443 119.0 436.0Q107 429 93.0 414.0Q79 399 60 373Q50 359 40.0 356.0Q30 353 14 360Q-5 370 -5.5 381.5Q-6 393 1 406Q21 438 43.0 463.0Q65 488 93.0 503.0Q121 518 158 518Q190 518 208.5 507.0Q227 496 234.5 477.5Q242 459 242.0 437.0Q242 415 239 394L227 342Q251 386 275.5 419.0Q300 452 325.0 474.5Q350 497 372.0 508.0Q394 519 413 519Q428 519 436.0 512.0Q444 505 443 481Q443 456 446.0 439.0Q449 422 456.5 414.0Q464 406 476 406Q499 406 524.5 419.5Q550 433 595 465Q606 472 616.5 467.5Q627 463 634.0 452.0Q641 441 641.5 428.5Q642 416 632 409Q589 374 550.0 355.5Q511 337 470 337Q448 337 427.5 346.0Q407 355 393.5 375.5Q380 396 378 431Q356 418 329.5 390.0Q303 362 274.5 320.5Q246 279 219.5 226.0Q193 173 170 111L146 11Q143 -2 132.5 -8.5Q122 -15 99 -15Z" transform="translate(231.76799999999997, 72) scale(0.072, -0.072)" /><path d="M141 -16Q84 -16 66.0 25.0Q48 66 69 142L152 484Q157 503 167.0 509.0Q177 515 196 515Q225 515 234.5 506.0Q244 497 238 479L145 107Q139 83 142.5 71.5Q146 60 160 60Q170 60 179.0 66.0Q188 72 198.0 83.5Q208 95 220 111Q227 120 236.0 122.0Q245 124 257 116Q272 107 275.5 97.0Q279 87 273 77Q256 48 235.5 27.0Q215 6 191.5 -5.0Q168 -16 141 -16ZM244 669Q222 669 208.0 682.5Q194 696 194 722Q194 751 211.0 773.0Q228 795 263 795Q285 795 299.0 781.5Q313 768 313 741Q313 713 296.5 691.0Q280 669 244 669Z" transform="translate(271.43999999999994, 72) scale(0.072, -0.072)" /><path d="M-113 -17Q-127 -17 -133.5 -5.5Q-140 6 -138.0 20.5Q-136 35 -125.5 46.5Q-115 58 -98 58Q-74 58 -38.0 87.0Q-2 116 41.5 167.0Q85 218 132.5 282.5Q180 347 226.5 418.0Q273 489 315.5 559.5Q358 630 392.5 692.0Q427 754 450.0 801.0Q473 848 479 871Q485 891 494.5 897.0Q504 903 524 903Q553 903 562.0 894.0Q571 885 566 867L376 109Q418 122 462.5 148.5Q507 175 559.5 218.5Q612 262 673 324Q678 329 687.5 331.5Q697 334 708 324Q721 313 721.0 304.0Q721 295 714 289Q659 233 602.5 181.5Q546 130 485.5 93.0Q425 56 359 43L351 11Q348 -2 338.0 -8.5Q328 -15 305 -15Q288 -15 275.0 -8.0Q262 -1 266 16L271 38Q243 41 220.0 51.0Q197 61 183.0 79.0Q169 97 169 122Q169 150 189.0 170.5Q209 191 243 191Q261 191 276.5 185.0Q292 179 303 168L412 602Q376 535 334.0 463.0Q292 391 246.5 321.5Q201 252 153.5 191.0Q106 130 59.5 83.0Q13 36 -30.5 9.5Q-74 -17 -113 -17ZM239 121Q239 116 244.0 111.5Q249 107 259.5 104.0Q270 101 285 100Q285 116 274.5 124.5Q264 133 253 133Q239 133 239 121Z" transform="translate(293.03999999999996, 72) scale(0.072, -0.072)" /><path d="M249 -18Q209 -18 177.5 -4.5Q146 9 121.5 32.5Q97 56 80.5 87.5Q64 119 56.0 154.5Q48 190 48 227Q48 264 56.0 304.5Q64 345 81.5 383.0Q99 421 125.5 452.0Q152 483 188.0 501.0Q224 519 271 519Q307 519 333.5 504.5Q360 490 374.5 464.5Q389 439 389 405Q389 359 364.0 311.0Q339 263 297.5 217.0Q256 171 205 132Q151 89 90.0 55.0Q29 21 -29.5 2.0Q-88 -17 -137 -17Q-151 -17 -158.0 -5.5Q-165 6 -163.0 20.5Q-161 35 -150.0 46.5Q-139 58 -118 58Q-81 58 -33.5 75.0Q14 92 64.5 121.5Q115 151 159 187Q198 218 229.5 252.0Q261 286 280.0 320.5Q299 355 299 386Q299 413 287.5 426.0Q276 439 253 439Q226 439 204.5 419.0Q183 399 167.5 368.0Q152 337 144.0 300.0Q136 263 136 230Q136 197 144.5 166.5Q153 136 170.0 112.5Q187 89 211.0 75.5Q235 62 265 62Q295 62 321.5 74.0Q348 86 372.5 106.5Q397 127 419 150Q432 164 446.5 161.5Q461 159 472 148Q484 136 486.0 124.0Q488 112 476 98Q442 55 404.0 29.5Q366 4 327.0 -7.0Q288 -18 249 -18Z" transform="translate(338.4, 72) scale(0.072, -0.072)" /><path d="M108 0Q63 0 71 28L282 861Q286 875 298.5 881.5Q311 888 333 888H494Q589 888 659.0 863.5Q729 839 775.5 796.0Q822 753 844.0 698.0Q866 643 866 581Q866 478 837.5 389.0Q809 300 756.0 229.0Q703 158 630.5 106.5Q558 55 469.5 27.5Q381 0 283 0ZM173 85H283Q361 85 433.0 106.5Q505 128 566.5 170.0Q628 212 673.0 272.5Q718 333 743.0 410.5Q768 488 768 581Q768 632 749.0 673.0Q730 714 694.0 743.0Q658 772 607.0 787.5Q556 803 493 803H355Z" transform="translate(391.968, 72) scale(0.072, -0.072)" /><path d="M321 -19Q242 -19 185.0 7.0Q128 33 97.0 81.5Q66 130 66 195Q66 243 84.0 288.0Q102 333 135.0 370.0Q168 407 213.0 433.5Q258 460 311 470Q272 483 245.5 507.5Q219 532 205.5 564.5Q192 597 192 633Q192 681 206.5 722.5Q221 764 247.5 797.0Q274 830 310.5 854.0Q347 878 392.5 890.5Q438 903 489 903Q543 903 590.5 889.0Q638 875 675.5 850.0Q713 825 736 792Q749 775 747.0 761.5Q745 748 731 738Q717 726 702.5 727.0Q688 728 673 743Q650 766 620.0 782.5Q590 799 553.0 807.5Q516 816 473 816Q430 816 395.0 802.5Q360 789 335.0 765.0Q310 741 296.5 707.5Q283 674 283 635Q283 597 301.5 568.0Q320 539 355.5 522.5Q391 506 441 506H560Q577 506 580.5 497.5Q584 489 579 466Q574 444 565.5 435.0Q557 426 542 426H421Q367 426 319.5 408.5Q272 391 236.0 360.0Q200 329 180.0 289.0Q160 249 160 204Q160 159 181.5 129.0Q203 99 243.0 84.0Q283 69 339 69Q387 69 430.5 85.0Q474 101 513.0 131.5Q552 162 586 205Q600 225 614.0 226.0Q628 227 644 214Q659 202 658.5 188.5Q658 175 644 157Q601 98 551.5 59.5Q502 21 444.5 1.0Q387 -19 321 -19Z" transform="translate(455.32800000000003, 72) scale(0.072, -0.072)" /><path d="M313 -19Q268 -19 228.0 -9.0Q188 1 154.0 19.0Q120 37 92.5 61.0Q65 85 44 113Q35 124 39.5 134.5Q44 145 55 155Q69 167 79.5 170.0Q90 173 101 161Q124 136 155.0 114.5Q186 93 225.5 79.5Q265 66 313 66Q362 66 402.0 76.5Q442 87 471.5 108.0Q501 129 517.5 162.5Q534 196 534 240Q534 269 524.0 293.0Q514 317 495.5 337.0Q477 357 450.0 374.5Q423 392 387 410Q354 426 323.5 445.0Q293 464 267.0 486.0Q241 508 222.0 535.5Q203 563 192.0 597.0Q181 631 181 674Q181 724 201.0 766.0Q221 808 259.0 839.0Q297 870 349.5 886.5Q402 903 468 903Q520 903 563.0 888.5Q606 874 641.5 850.5Q677 827 705 799Q716 789 713.5 778.0Q711 767 698 755Q687 744 675.0 741.5Q663 739 653 746Q629 766 603.0 782.0Q577 798 544.5 808.0Q512 818 467 818Q425 818 389.0 809.0Q353 800 327.5 782.0Q302 764 288.0 737.0Q274 710 274 674Q274 641 282.5 615.0Q291 589 309.5 568.0Q328 547 358.0 527.5Q388 508 430 489Q474 468 510.0 443.0Q546 418 572.5 388.0Q599 358 612.5 321.5Q626 285 626 240Q626 181 603.0 133.5Q580 86 538.0 51.5Q496 17 439.0 -1.0Q382 -19 313 -19Z" transform="translate(527.76, 72) scale(0.072, -0.072)" /><path d="M137 -17Q108 -17 83.0 -7.5Q58 2 39.5 14.5Q21 27 11 36Q0 47 1.0 60.0Q2 73 14 87Q26 102 37.0 103.5Q48 105 59 96Q79 80 98.5 72.0Q118 64 139 64Q159 64 179.0 71.5Q199 79 223.0 99.0Q247 119 275.5 156.5Q304 194 341.0 252.5Q378 311 424.5 396.5Q471 482 529.5 598.0Q588 714 661 866Q670 887 685.5 895.0Q701 903 723 903Q753 903 768.0 893.5Q783 884 782 860Q778 797 775.5 732.0Q773 667 772.0 601.0Q771 535 772.0 469.5Q773 404 775.5 340.0Q778 276 783 215Q786 172 791.5 142.5Q797 113 805.5 95.5Q814 78 825.5 70.5Q837 63 851 63Q872 63 894.0 82.5Q916 102 939.0 141.5Q962 181 986 242Q992 256 1003.5 260.5Q1015 265 1032 258Q1051 252 1058.0 241.0Q1065 230 1060 217Q1031 139 997.5 87.0Q964 35 926.0 9.0Q888 -17 843 -17Q810 -17 785.0 -4.0Q760 9 742.5 36.5Q725 64 714.0 107.0Q703 150 698 209Q697 225 696.0 240.0Q695 255 695 270H445Q400 196 363.5 145.0Q327 94 296.0 62.0Q265 30 238.0 13.0Q211 -4 186.5 -10.5Q162 -17 137 -17ZM490 348H691Q689 414 688.5 482.0Q688 550 689.0 619.0Q690 688 692 756Q633 629 583.0 527.5Q533 426 490 348Z" transform="translate(577.872, 72) scale(0.072, -0.072)" /><path d="M313 -19Q268 -19 228.0 -9.0Q188 1 154.0 19.0Q120 37 92.5 61.0Q65 85 44 113Q35 124 39.5 134.5Q44 145 55 155Q69 167 79.5 170.0Q90 173 101 161Q124 136 155.0 114.5Q186 93 225.5 79.5Q265 66 313 66Q362 66 402.0 76.5Q442 87 471.5 108.0Q501 129 517.5 162.5Q534 196 534 240Q534 269 524.0 293.0Q514 317 495.5 337.0Q477 357 450.0 374.5Q423 392 387 410Q354 426 323.5 445.0Q293 464 267.0 486.0Q241 508 222.0 535.5Q203 563 192.0 597.0Q181 631 181 674Q181 724 201.0 766.0Q221 808 259.0 839.0Q297 870 349.5 886.5Q402 903 468 903Q520 903 563.0 888.5Q606 874 641.5 850.5Q677 827 705 799Q716 789 713.5 778.0Q711 767 698 755Q687 744 675.0 741.5Q663 739 653 746Q629 766 603.0 782.0Q577 798 544.5 808.0Q512 818 467 818Q425 818 389.0 809.0Q353 800 327.5 782.0Q302 764 288.0 737.0Q274 710 274 674Q274 641 282.5 615.0Q291 589 309.5 568.0Q328 547 358.0 527.5Q388 508 430 489Q474 468 510.0 443.0Q546 418 572.5 388.0Q599 358 612.5 321.5Q626 285 626 240Q626 181 603.0 133.5Q580 86 538.0 51.5Q496 17 439.0 -1.0Q382 -19 313 -19Z" transform="translate(654.6239999999999, 72) scale(0.072, -0.072)" /></g></svg>
